src/assets/outline/Gemini.svg

<svg width="24" height="24" viewBox="0 0 24 24"  xmlns="http://www.w3.org/2000/svg">
<path d="M12.0001 5.52992C8.41012 5.52992 4.82012 4.56992 1.61012 2.64992C1.25012 2.43992 1.14012 1.97989 1.35012 1.61989C1.56012 1.25989 2.02012 1.14988 2.38012 1.35988C8.31012 4.91988 15.6801 4.91988 21.6101 1.35988C21.9601 1.14988 22.4301 1.25989 22.6401 1.61989C22.8501 1.97989 22.7401 2.43992 22.3801 2.64992C19.1801 4.56992 15.5901 5.52992 12.0001 5.52992Z" />
<path d="M22.0001 22.7507C21.8701 22.7507 21.7401 22.7207 21.6101 22.6407C15.6801 19.0807 8.31012 19.0807 2.38012 22.6407C2.03012 22.8507 1.56012 22.7407 1.35012 22.3807C1.14012 22.0207 1.25012 21.5607 1.61012 21.3507C8.02012 17.5107 15.9801 17.5107 22.3801 21.3507C22.7401 21.5607 22.8501 22.0207 22.6401 22.3807C22.5001 22.6207 22.2501 22.7507 22.0001 22.7507Z" />
<path d="M5.32978 21.1605C5.20978 21.1605 5.08978 21.1306 4.96978 21.0706C4.60978 20.8706 4.46978 20.4205 4.66978 20.0505C7.34978 15.0905 7.37978 9.15054 4.75978 4.17054L4.63978 3.93055C4.44978 3.56055 4.58978 3.11054 4.95978 2.92054C5.32978 2.73054 5.77978 2.87055 5.96978 3.24055L6.08978 3.48054C8.93978 8.91054 8.89978 15.3806 5.98978 20.7706C5.85978 21.0206 5.59978 21.1605 5.32978 21.1605Z" />
<path d="M18.6701 21.1605C18.4001 21.1605 18.1501 21.0206 18.0101 20.7706C15.1001 15.3706 15.0601 8.91054 17.9101 3.48054L18.0301 3.24055C18.2201 2.87055 18.6801 2.73054 19.0401 2.92054C19.4101 3.11054 19.5501 3.57055 19.3601 3.93055L19.2401 4.17054C16.6201 9.16054 16.6601 15.1005 19.3301 20.0505C19.5301 20.4205 19.3901 20.8706 19.0301 21.0706C18.9101 21.1306 18.7901 21.1605 18.6701 21.1605Z" />
</svg>

<?xml version="1.0" encoding="UTF-8"?>
<svg width="24" height="24" viewBox="0 0 24 24" xmlns="http://www.w3.org/2000/svg">
 <path d="m12 5.5299c-3.59 0-7.18-0.96-10.39-2.88-0.36-0.21-0.47-0.67003-0.26-1.03s0.67-0.47001 1.03-0.26001c5.93 3.56 13.3 3.56 19.23 0 0.35-0.21 0.82-0.09999 1.03 0.26001s0.1 0.82003-0.26 1.03c-3.2 1.92-6.79 2.88-10.38 2.88z"/>
 <path d="m22 22.751c-0.13 0-0.26-0.03-0.39-0.11-5.93-3.56-13.3-3.56-19.23 0-0.35 0.21-0.82 0.1-1.03-0.26s-0.1-0.82 0.26-1.03c6.41-3.84 14.37-3.84 20.77 0 0.36 0.21 0.47 0.67 0.26 1.03-0.14 0.24-0.39 0.37-0.64 0.37z"/>
 <path d="m5.3298 21.16c-0.12 0-0.24-0.0299-0.36-0.0899-0.36-0.2-0.5-0.6501-0.3-1.0201 2.68-4.96 2.71-10.9 0.09-15.88l-0.12-0.23999c-0.19-0.37-0.05-0.82001 0.32-1.01s0.82-0.04999 1.01 0.32001l0.12 0.23999c2.85 5.43 2.81 11.9-0.1 17.29-0.13 0.25-0.39 0.3899-0.66 0.3899z"/>
 <path d="m18.67 21.16c-0.27 0-0.52-0.1399-0.66-0.3899-2.91-5.4-2.95-11.86-0.1-17.29l0.12-0.23999c0.19-0.37 0.65-0.51001 1.01-0.32001 0.37 0.19 0.51 0.65001 0.32 1.01l-0.12 0.23999c-2.62 4.99-2.58 10.93 0.09 15.88 0.2 0.37 0.06 0.8201-0.3 1.0201-0.12 0.06-0.24 0.0899-0.36 0.0899z"/>
</svg>
